X:986
T:Reel 986
L:1/8
M: 4/4
K: G Major
B2BAG2GE|ADFDADFD|G2BGG2GE|ABcABGG2|B2BAG2GE|ADFDADFD|BGAFG2G2|ABcAdG(3GGG|dececdfg|gd(3gggdggf|dececdfg|G2BAGABc|dececdfg|(3gfefdBeef|eaa2(3Bcdgd|BdgdBGG2|.abc